X:1
T: Mocha Polka
C: R-47
C: Jim Guinness 1981
M: C|
Z:
R: polka
K: D
FG| "D"A2F2 B2F2| A2D2 F2A2| "Em"G2E2 B2G2| "A"cdcB A2FG|
    "D"A2F2 B2F2| A2D2 F2A2| "G"BdcB "A7"AGFE| "D"D2d2 D2 :| \K: G\
|:\
GE| "G"D2GB d2Bd| g2B2 "Am"c2d2| "D7"d2c2 A2c2| "G"e2d2 B2G2|
    "G"D2GB d2Bd| g2B2 "Am"c2e2| "D7"e2d2 c2A2| "G"G6 :|
%
